public/img/mandlamoney.svg

<svg width="302" height="328" viewBox="0 0 302 328" fill="none" xmlns="http://www.w3.org/2000/svg">
<g clip-path="url(#clip0_2324_2)">
<path d="M271.906 291.937C252.367 315.045 343.438 246.443 278.638 182.321C278.638 182.321 258.107 154.736 205.339 135.127C161.764 118.933 96.2497 61.636 74.3551 -8.83694e-06C74.3551 -8.83694e-06 40.3591 74.5547 62.8911 158.157C62.8911 158.157 106.027 178.432 145.668 174.071C145.668 174.071 216.475 172.453 246.268 190.779C246.268 190.779 283.852 209.791 288.9 241.641C288.9 241.641 292.935 267.065 271.906 291.937Z" fill="#DBB826"/>
<path d="M121.338 193.147C121.05 191.814 121.891 190.489 123.222 190.197C124.559 189.902 125.88 190.746 126.174 192.08C128.232 201.412 126.162 211.129 120.498 218.741C113.422 228.253 101.662 233.201 89.8097 231.654C86.0537 231.165 82.7684 230.17 79.7671 228.615C71.7111 224.45 63.1204 221.721 54.2271 220.506C52.8697 220.318 51.9217 219.07 52.1097 217.718C52.2857 216.359 53.5364 215.411 54.8951 215.598C64.3524 216.893 73.4831 219.793 82.0417 224.218C84.5257 225.505 87.2737 226.33 90.4457 226.743C100.527 228.061 110.52 223.862 116.528 215.787C121.335 209.327 123.087 201.075 121.338 193.147ZM109.382 185.56C111.198 187.442 112.399 189.465 113.398 192.313C115.668 198.799 114.614 205.918 110.568 211.354C106.163 217.274 98.8217 220.349 91.4057 219.378C89.0791 219.078 87.1897 218.521 85.4564 217.625C64.3177 206.693 40.7764 204.837 19.2844 210.837C20.2897 213.111 21.3444 215.398 22.4577 217.695C27.7991 216.255 33.2911 215.286 38.9151 214.967C40.2804 214.89 41.4524 215.934 41.5284 217.298C41.6137 218.665 40.5657 219.834 39.1991 219.91C34.2604 220.19 29.4351 221.017 24.7257 222.222C25.8737 224.454 27.0724 226.691 28.3297 228.931C44.1111 225.439 61.0471 227.295 76.3564 235.213C80.1377 237.17 84.2231 238.413 88.8404 239.015C103.366 240.914 117.78 234.843 126.46 223.178C133.916 213.156 136.236 200.278 132.871 188.261C125.231 187.633 117.038 186.422 108.532 184.644C108.818 184.948 109.092 185.258 109.382 185.56Z" fill="#E7C81D"/>
<path d="M1.3436 146.196C5.81827 144.956 10.3689 143.924 14.9783 143.08C12.4289 141.105 9.94627 139.08 7.55827 136.986C5.19293 137.512 2.85693 138.116 0.531601 138.752C0.723601 140.9 0.986268 143.394 1.3436 146.196Z" fill="#E7C81D"/>
<path d="M165.158 326.011C169.651 326.813 174.266 327.427 178.955 327.798L171.552 322.291C169.459 323.609 167.315 324.825 165.158 326.011Z" fill="#E7C81D"/>
<path d="M237.622 240.326L271.972 265.885C272.554 263.141 272.939 260.322 273.083 257.451L244.099 235.885C243.311 235.298 242.944 234.302 243.162 233.343C244.948 225.586 246.083 217.763 246.647 209.935C244.431 208.313 242.062 206.706 239.507 205.118C239.142 213.447 238.098 221.805 236.275 230.119C235.984 231.467 234.659 232.299 233.328 232.007C231.992 231.715 231.148 230.397 231.44 229.061C233.392 220.151 234.451 211.19 234.674 202.274C232.606 201.107 230.462 199.949 228.19 198.807C228.19 198.807 227.842 198.622 227.188 198.311C227.3 213.378 224.902 228.222 219.932 242.589L267.954 278.319C268.96 275.986 269.863 273.557 270.627 271.051L234.668 244.295C233.571 243.479 233.343 241.93 234.159 240.834C234.975 239.737 236.526 239.51 237.622 240.326Z" fill="#E7C81D"/>
<path d="M128.309 309.732C142.237 305.431 155.082 298.624 166.483 289.503C169.538 287.06 173.843 286.974 176.957 289.291L221.883 322.719C224.561 321.754 227.213 320.636 229.834 319.374L181.391 283.331C175.57 278.999 167.533 279.154 161.842 283.703C146.385 296.074 128.155 303.64 109.235 306.3C114.653 309.2 125.265 314.458 138.799 319.098C148.525 315.496 157.897 310.786 166.615 304.807C167.742 304.032 169.282 304.319 170.057 305.447C170.827 306.574 170.553 308.118 169.413 308.887C162.081 313.916 154.295 318.072 146.243 321.484C149.838 322.556 153.585 323.559 157.454 324.444C161.845 322.254 166.161 319.895 170.318 317.21C171.186 316.648 172.31 316.687 173.138 317.303L187.766 328.187C191.663 328.219 195.589 328.058 199.517 327.671L177.579 311.347C176.483 310.532 176.255 308.982 177.071 307.886C177.887 306.788 179.437 306.562 180.534 307.378L206.541 326.728C209.739 326.18 212.929 325.475 216.094 324.579L174.003 293.26C172.693 292.284 170.871 292.331 169.577 293.368C157.687 302.882 144.293 309.976 129.767 314.46C128.462 314.868 127.077 314.135 126.673 312.83C126.265 311.522 126.99 310.135 128.309 309.732Z" fill="#E7C81D"/>
<path d="M170.643 256.052C163.311 265.906 154.324 274.123 143.935 280.478C142.769 281.191 141.245 280.823 140.533 279.655C139.819 278.492 140.195 276.968 141.356 276.254C151.201 270.232 159.72 262.443 166.673 253.099C179.023 236.499 185.183 216.818 184.492 196.186C184.436 194.816 185.513 193.675 186.88 193.627C188.248 193.583 189.391 194.651 189.437 196.018C190.169 217.786 183.671 238.544 170.643 256.052ZM222.595 291.623C223.691 292.439 223.919 293.988 223.103 295.084C222.287 296.182 220.737 296.41 219.64 295.592L175.787 262.964C174.691 262.148 174.464 260.599 175.279 259.502C176.095 258.406 177.645 258.178 178.741 258.994L222.595 291.623ZM190.799 245.228C192.16 245.083 193.379 246.063 193.525 247.422C194.004 251.827 196.313 255.87 199.86 258.508L254.996 299.532C256.397 297.778 257.903 295.775 259.423 293.568L204.295 252.55C201.184 250.236 200.027 246.082 201.485 242.452C208.012 226.28 210.627 209.175 209.639 192.355C207.307 191.776 204.761 191.214 202.003 190.69C203.201 205.794 201.325 221.188 196.08 235.795C195.627 237.1 194.199 237.748 192.915 237.288C191.628 236.827 190.961 235.41 191.424 234.123C196.573 219.779 198.336 204.639 196.981 189.826C190.763 188.858 183.645 188.135 175.656 187.886C178.599 209.098 173.231 230.802 160.216 248.294C142.445 272.178 113.008 284.612 83.3935 280.744C77.1348 279.924 71.3441 278.48 65.7881 276.424C70.2575 280.514 75.0321 284.472 80.1295 288.267C96.4895 290.843 113.437 289.046 129.055 282.528C130.319 282.006 131.768 282.599 132.293 283.862C132.641 284.696 132.496 285.616 131.992 286.294C131.736 286.639 131.387 286.922 130.964 287.1C117.452 292.736 102.983 295.091 88.6935 294.275C92.8428 297.016 97.1841 299.651 101.731 302.162C122.205 300.656 142.148 293.124 158.751 279.839C166.195 273.882 176.717 273.684 184.345 279.36L234.699 316.826C237.157 315.432 239.583 313.902 241.964 312.202L229.569 302.98C228.473 302.166 228.245 300.615 229.061 299.519C229.877 298.422 231.427 298.195 232.523 299.01L246.049 309.074C246.519 308.694 246.992 308.324 247.459 307.93C247.459 307.93 249.217 306.278 251.809 303.332L196.905 262.48C192.255 259.02 189.231 253.726 188.605 247.958C188.461 246.595 189.437 245.374 190.799 245.228Z" fill="#E7C81D"/>
<path d="M76.0172 185.631C75.4292 186.422 74.3999 186.817 73.3945 186.546C52.1799 180.863 30.5079 181.461 10.4745 187.475C11.2212 189.834 12.0212 192.23 12.8772 194.658C38.9025 186.915 67.6172 188.913 93.3585 202.202C93.2345 202.137 93.4079 202.165 93.6519 202.198C95.9439 202.498 97.8119 200.249 97.0425 198.035C96.9412 197.746 96.8745 197.566 96.8119 197.449C90.9119 191.333 85.8052 184.583 81.5372 177.371C72.4999 174.393 63.4199 170.838 54.5599 166.746C54.6105 166.882 54.6505 167.022 54.7025 167.158C55.0012 167.949 54.8745 168.835 54.3732 169.51C53.8692 170.187 53.0559 170.562 52.2159 170.502C39.8452 169.637 27.4412 170.581 15.3492 173.313C14.0132 173.61 12.6879 172.774 12.3892 171.441C12.0865 170.111 12.9239 168.783 14.2572 168.481C25.5945 165.925 37.1905 164.875 48.7865 165.354C48.5999 164.811 48.4479 164.262 48.2679 163.718C44.4065 161.795 40.6052 159.767 36.8799 157.635C36.5345 157.845 36.1532 157.991 35.7399 158.013C24.9532 158.594 14.3972 160.449 4.21988 163.429C4.73188 165.922 5.30521 168.514 5.94921 171.197C6.65188 171.451 7.24521 171.982 7.48388 172.751C7.72788 173.537 7.55854 174.349 7.10254 174.962C7.05454 175.026 6.98521 175.07 6.93188 175.13C7.57055 177.607 8.26388 180.142 9.02521 182.739C29.9252 176.459 52.5385 175.833 74.6745 181.766C75.9932 182.118 76.7759 183.474 76.4225 184.795C76.3412 185.107 76.1985 185.389 76.0172 185.631Z" fill="#E7C81D"/>
<path d="M257.8 230.654C257.048 230.094 256.673 229.154 256.841 228.231C257.338 225.47 257.752 222.695 258.106 219.915C256.085 217.786 253.833 215.671 251.318 213.578C250.717 220.03 249.749 226.474 248.342 232.875L272.99 251.215C272.706 247.627 271.997 243.981 270.778 240.31L257.8 230.654Z" fill="#E7C81D"/>
<path d="M215.513 245.469C214.638 244.818 214.292 243.669 214.661 242.642C220.086 227.622 222.59 212.042 222.212 196.22C220.209 195.462 217.704 194.604 214.718 193.728C215.482 210.726 212.668 227.973 206.078 244.302C205.458 245.846 205.94 247.606 207.248 248.58L262.134 289.418C263.401 287.37 264.641 285.189 265.808 282.892L215.513 245.469Z" fill="#E7C81D"/>
<path d="M3.15733 132.953C2.088 131.934 1.02667 130.91 0 129.865C0 129.865 0.0106667 131.242 0.157333 133.754C1.152 133.471 2.15467 133.211 3.15733 132.953Z" fill="#E7C81D"/>
<path d="M262.368 224.853C262.228 225.766 262.134 226.685 261.979 227.596L266.524 230.977C265.326 228.932 263.95 226.889 262.368 224.853Z" fill="#E7C81D"/>
<path d="M63.7749 270.325C70.1069 273.075 76.7349 274.881 84.0389 275.837C111.874 279.471 139.546 267.786 156.246 245.341C168.635 228.69 173.664 207.973 170.659 187.79C168.226 187.777 165.711 187.815 163.132 187.898C165.514 202.609 163.21 217.871 156.347 231.198C155.711 232.406 154.23 232.893 153.014 232.267C151.799 231.641 151.319 230.146 151.946 228.93C158.412 216.374 160.526 201.965 158.155 188.113C156.464 188.207 154.751 188.317 153.002 188.457C152.252 188.517 151.468 188.55 150.696 188.594C153.63 204.279 150.002 220.558 140.359 233.519C136.583 238.595 132.02 242.982 126.796 246.562C125.671 247.334 124.131 247.046 123.356 245.918C122.586 244.791 122.851 243.254 124.002 242.477C128.771 239.209 132.939 235.202 136.388 230.566C145.354 218.518 148.631 203.326 145.696 188.761C143.238 188.783 140.683 188.725 138.055 188.597C141.174 201.601 138.462 215.337 130.43 226.131C120.68 239.235 104.5 246.055 88.1989 243.926C83.0029 243.249 78.3856 241.839 74.0843 239.613C60.3416 232.506 45.1976 230.669 30.9603 233.467C32.3176 235.745 33.7323 238.019 35.2109 240.289C47.3043 238.513 59.6576 240.51 70.6696 246.207C75.7523 248.834 81.1723 250.495 87.2456 251.29C95.6229 252.382 104.248 251.438 112.183 248.553C113.471 248.087 114.887 248.749 115.356 250.034C115.654 250.847 115.494 251.714 115.014 252.358C114.735 252.733 114.348 253.035 113.875 253.207C105.199 256.362 95.7669 257.397 86.5989 256.198C79.9536 255.33 73.9989 253.502 68.3976 250.607C59.0336 245.761 48.6109 243.845 38.3069 244.889C39.9736 247.294 41.7123 249.687 43.5283 252.065C50.7949 252.029 58.1389 253.659 64.9843 257.199C71.3643 260.499 78.1176 262.578 85.6403 263.562C107.563 266.427 129.206 258.153 143.531 241.435C144.422 240.397 145.986 240.277 147.022 241.166C148.019 242.019 148.168 243.486 147.398 244.521C147.363 244.567 147.33 244.613 147.292 244.657C131.874 262.649 108.583 271.55 84.9949 268.47C76.8963 267.413 69.6069 265.165 62.7136 261.599C57.8589 259.089 52.7203 257.657 47.5589 257.182C51.5563 262.061 55.8976 266.846 60.5949 271.494C61.1736 270.338 62.5616 269.795 63.7749 270.325Z" fill="#E7C81D"/>
<path d="M87.7321 213.228C88.9335 213.849 90.3041 214.245 92.0468 214.469C97.6868 215.208 103.264 212.883 106.599 208.401C109.66 204.287 110.453 198.883 108.723 193.949C107.967 191.785 107.125 190.351 105.817 188.996C103.88 186.983 102.053 184.9 100.317 182.767C96.5121 181.829 92.6681 180.787 88.7988 179.635C92.2255 184.772 96.1215 189.632 100.467 194.145C100.929 194.616 101.271 195.123 101.719 196.405C102.629 199.012 102.225 201.837 100.64 203.968C98.9121 206.291 95.9895 207.495 93.0148 207.108C91.5788 206.921 91.1215 206.653 90.8055 206.419C66.5161 193.881 39.3015 191.981 14.5641 199.292C15.4295 201.589 16.3481 203.912 17.3201 206.252C40.1495 199.708 65.2295 201.591 87.7321 213.228Z" fill="#E7C81D"/>
<path d="M29.9376 153.496C26.6989 151.471 23.5376 149.36 20.4656 147.171C14.2003 148.123 8.05094 149.468 2.03494 151.171C2.38428 153.491 2.79494 155.964 3.27361 158.574C11.9256 156.063 20.8403 154.342 29.9376 153.496Z" fill="#E7C81D"/>
</g>
<defs>
<clipPath id="clip0_2324_2">
<rect width="302" height="328" fill="white"/>
</clipPath>
</defs>
</svg>

<svg xmlns="http://www.w3.org/2000/svg" width="302" height="328" fill="none" viewBox="0 0 302 328"><g clip-path="url(#a)"><path fill="#dbb826" d="M271.906 291.937c-19.539 23.108 71.532-45.494 6.732-109.616 0 0-20.531-27.585-73.299-47.194C161.764 118.933 96.249 61.636 74.355 0c0 0-33.996 74.555-11.464 158.157 0 0 43.136 20.275 82.777 15.914 0 0 70.807-1.618 100.6 16.708 0 0 37.584 19.012 42.632 50.862 0 0 4.035 25.424-16.994 50.296"/><path fill="#e7c81d" d="M121.338 193.147a2.475 2.475 0 0 1 4.836-1.067c2.058 9.332-.012 19.049-5.676 26.661-7.076 9.512-18.836 14.46-30.688 12.913-3.756-.489-7.042-1.484-10.043-3.039-8.056-4.165-16.647-6.894-25.54-8.109a2.474 2.474 0 0 1-2.117-2.788 2.463 2.463 0 0 1 2.785-2.12c9.457 1.295 18.588 4.195 27.147 8.62 2.484 1.287 5.232 2.112 8.404 2.525 10.081 1.318 20.074-2.881 26.082-10.956 4.807-6.46 6.559-14.712 4.81-22.64m-11.956-7.587c1.816 1.882 3.017 3.905 4.016 6.753 2.27 6.486 1.216 13.605-2.83 19.041-4.405 5.92-11.746 8.995-19.162 8.024-2.327-.3-4.216-.857-5.95-1.753-21.138-10.932-44.68-12.788-66.172-6.788a215 215 0 0 0 3.174 6.858c5.341-1.44 10.833-2.409 16.457-2.728a2.477 2.477 0 0 1 2.613 2.331 2.466 2.466 0 0 1-2.329 2.612c-4.939.28-9.764 1.107-14.473 2.312a209 209 0 0 0 3.604 6.709c15.781-3.492 32.717-1.636 48.026 6.282 3.782 1.957 7.867 3.2 12.484 3.802 14.526 1.899 28.94-4.172 37.62-15.837 7.456-10.022 9.776-22.9 6.411-34.917-7.64-.628-15.833-1.839-24.339-3.617.286.304.56.614.85.916M1.344 146.196a157 157 0 0 1 13.634-3.116c-2.55-1.975-5.032-4-7.42-6.094a150 150 0 0 0-7.026 1.766c.192 2.148.454 4.642.812 7.444M165.158 326.011c4.493.802 9.108 1.416 13.797 1.787l-7.403-5.507c-2.093 1.318-4.237 2.534-6.394 3.72M237.622 240.326l34.35 25.559a53.6 53.6 0 0 0 1.111-8.434l-28.984-21.566a2.48 2.48 0 0 1-.937-2.542c1.786-7.757 2.921-15.58 3.485-23.408a114 114 0 0 0-7.14-4.817c-.365 8.329-1.409 16.687-3.232 25.001a2.467 2.467 0 0 1-2.947 1.888 2.473 2.473 0 0 1-1.888-2.946 141.6 141.6 0 0 0 3.234-26.787 152 152 0 0 0-6.484-3.467s-.348-.185-1.002-.496c.112 15.067-2.286 29.911-7.256 44.278l48.022 35.73a70 70 0 0 0 2.673-7.268l-35.959-26.756a2.475 2.475 0 1 1 2.954-3.969"/><path fill="#e7c81d" d="M128.309 309.732a115.3 115.3 0 0 0 38.174-20.229c3.055-2.443 7.36-2.529 10.474-.212l44.926 33.428a84 84 0 0 0 7.951-3.345l-48.443-36.043c-5.821-4.332-13.858-4.177-19.549.372-15.457 12.371-33.687 19.937-52.607 22.597 5.418 2.9 16.03 8.158 29.564 12.798 9.726-3.602 19.098-8.312 27.816-14.291a2.474 2.474 0 0 1 3.442.64 2.465 2.465 0 0 1-.644 3.44c-7.332 5.029-15.118 9.185-23.17 12.597a179 179 0 0 0 11.211 2.96c4.391-2.19 8.707-4.549 12.864-7.234a2.47 2.47 0 0 1 2.82.093l14.628 10.884c3.897.032 7.823-.129 11.751-.516l-21.938-16.324a2.473 2.473 0 1 1 2.955-3.969l26.007 19.35a92 92 0 0 0 9.553-2.149l-42.091-31.319c-1.31-.976-3.132-.929-4.426.108a120.2 120.2 0 0 1-39.81 21.092 2.47 2.47 0 0 1-3.094-1.63 2.464 2.464 0 0 1 1.636-3.098"/><path fill="#e7c81d" d="M170.643 256.052c-7.332 9.854-16.319 18.071-26.708 24.426a2.473 2.473 0 0 1-3.402-.823 2.48 2.48 0 0 1 .823-3.401c9.845-6.022 18.364-13.811 25.317-23.155 12.35-16.6 18.51-36.281 17.819-56.913a2.467 2.467 0 0 1 2.388-2.559 2.475 2.475 0 0 1 2.557 2.391c.732 21.768-5.766 42.526-18.794 60.034m51.952 35.571a2.473 2.473 0 0 1 .508 3.461 2.47 2.47 0 0 1-3.463.508l-43.853-32.628a2.475 2.475 0 0 1 2.954-3.97zm-31.796-46.395a2.474 2.474 0 0 1 2.726 2.194 16.01 16.01 0 0 0 6.335 11.086l55.136 41.024a105 105 0 0 0 4.427-5.964l-55.128-41.018c-3.111-2.314-4.268-6.468-2.81-10.098 6.527-16.172 9.142-33.277 8.154-50.097a141 141 0 0 0-7.636-1.665c1.198 15.104-.678 30.498-5.923 45.105-.453 1.305-1.881 1.953-3.165 1.493a2.47 2.47 0 0 1-1.491-3.165c5.149-14.344 6.912-29.484 5.557-44.297-6.218-.968-13.336-1.691-21.325-1.94 2.943 21.212-2.425 42.916-15.44 60.408-17.771 23.884-47.208 36.318-76.822 32.45-6.26-.82-12.05-2.264-17.606-4.32a184 184 0 0 0 14.341 11.843c16.36 2.576 33.308.779 48.926-5.739a2.477 2.477 0 0 1 1.909 4.572c-13.512 5.636-27.981 7.991-42.27 7.175 4.149 2.741 8.49 5.376 13.037 7.887 20.474-1.506 40.417-9.038 57.02-22.323 7.444-5.957 17.966-6.155 25.594-.479l50.354 37.466a83 83 0 0 0 7.265-4.624l-12.395-9.222a2.474 2.474 0 0 1 2.954-3.97l13.526 10.064c.47-.38.943-.75 1.41-1.144 0 0 1.758-1.652 4.35-4.598l-54.904-40.852a20.97 20.97 0 0 1-8.3-14.522 2.475 2.475 0 0 1 2.194-2.73M76.017 185.631a2.47 2.47 0 0 1-2.623.915c-21.214-5.683-42.886-5.085-62.92.929a234 234 0 0 0 2.403 7.183c26.026-7.743 54.74-5.745 80.482 7.544-.124-.065.049-.037.293-.004 2.292.3 4.16-1.949 3.39-4.163a5 5 0 0 0-.23-.586 108.5 108.5 0 0 1-15.275-20.078 255 255 0 0 1-26.977-10.625c.05.136.09.276.142.412a2.477 2.477 0 0 1-2.486 3.344 127 127 0 0 0-36.867 2.811 2.476 2.476 0 0 1-1.092-4.832 132.1 132.1 0 0 1 34.53-3.127c-.187-.543-.34-1.092-.52-1.636a224 224 0 0 1-11.387-6.083c-.346.21-.727.356-1.14.378-10.787.581-21.343 2.436-31.52 5.416a241 241 0 0 0 1.73 7.768c.702.254 1.295.785 1.534 1.554a2.47 2.47 0 0 1-.381 2.211c-.048.064-.118.108-.171.168a240 240 0 0 0 2.093 7.609c20.9-6.28 43.513-6.906 65.65-.973a2.472 2.472 0 0 1 1.342 3.865M257.8 230.654a2.47 2.47 0 0 1-.959-2.423c.497-2.761.911-5.536 1.265-8.316a79 79 0 0 0-6.788-6.337c-.601 6.452-1.569 12.896-2.976 19.297l24.648 18.34a46 46 0 0 0-2.212-10.905z"/><path fill="#e7c81d" d="M215.513 245.469a2.48 2.48 0 0 1-.852-2.827c5.425-15.02 7.929-30.6 7.551-46.422a104 104 0 0 0-7.494-2.492 120.6 120.6 0 0 1-8.64 50.574c-.62 1.544-.138 3.304 1.17 4.278l54.886 40.838a89 89 0 0 0 3.674-6.526zM3.157 132.953A134 134 0 0 1 0 129.865s.01 1.377.157 3.889c.995-.283 1.998-.543 3-.801M262.368 224.853c-.14.913-.234 1.832-.389 2.743l4.545 3.381a57 57 0 0 0-4.156-6.124M63.775 270.325c6.332 2.75 12.96 4.556 20.264 5.512 27.835 3.634 55.507-8.051 72.207-30.496 12.389-16.651 17.418-37.368 14.413-57.551-2.433-.013-4.948.025-7.527.108 2.382 14.711.078 29.973-6.785 43.3-.636 1.208-2.117 1.695-3.333 1.069a2.48 2.48 0 0 1-1.068-3.337c6.466-12.556 8.58-26.965 6.209-40.817-1.691.094-3.404.204-5.153.344-.75.06-1.534.093-2.306.137 2.934 15.685-.694 31.964-10.337 44.925a57.1 57.1 0 0 1-13.563 13.043 2.476 2.476 0 0 1-3.44-.644 2.46 2.46 0 0 1 .646-3.441 52.1 52.1 0 0 0 12.386-11.911c8.966-12.048 12.243-27.24 9.308-41.805a133 133 0 0 1-7.641-.164c3.119 13.004.407 26.74-7.625 37.534-9.75 13.104-25.93 19.924-42.231 17.795-5.196-.677-9.813-2.087-14.115-4.313-13.742-7.107-28.886-8.944-43.124-6.146a201 201 0 0 0 4.25 6.822c12.094-1.776 24.448.221 35.46 5.918 5.082 2.627 10.502 4.288 16.576 5.083a53.2 53.2 0 0 0 24.937-2.737 2.477 2.477 0 0 1 1.692 4.654 58.1 58.1 0 0 1-27.276 2.991c-6.645-.868-12.6-2.696-18.201-5.591-9.364-4.846-19.787-6.762-30.091-5.718a192 192 0 0 0 5.221 7.176c7.267-.036 14.61 1.594 21.456 5.134 6.38 3.3 13.134 5.379 20.656 6.363 21.923 2.865 43.566-5.409 57.891-22.127a2.477 2.477 0 0 1 3.491-.269 2.47 2.47 0 0 1 .376 3.355q-.05.07-.106.136c-15.418 17.992-38.709 26.893-62.297 23.813-8.099-1.057-15.388-3.305-22.281-6.871a41.1 41.1 0 0 0-15.155-4.417 186 186 0 0 0 13.036 14.312c.579-1.156 1.967-1.699 3.18-1.169"/><path fill="#e7c81d" d="M87.732 213.228c1.201.621 2.572 1.017 4.315 1.241 5.64.739 11.217-1.586 14.552-6.068 3.061-4.114 3.854-9.518 2.124-14.452-.756-2.164-1.598-3.598-2.906-4.953a100 100 0 0 1-5.5-6.229 251 251 0 0 1-11.518-3.132 104.6 104.6 0 0 0 11.668 14.51c.462.471.804.978 1.252 2.26.91 2.607.506 5.432-1.079 7.563-1.728 2.323-4.65 3.527-7.625 3.14-1.436-.187-1.894-.455-2.21-.689-24.289-12.538-51.504-14.438-76.24-7.127a224 224 0 0 0 2.755 6.96c22.83-6.544 47.91-4.661 70.412 6.976M29.938 153.496a189 189 0 0 1-9.472-6.325 151 151 0 0 0-18.431 4c.35 2.32.76 4.793 1.239 7.403a143 143 0 0 1 26.664-5.078"/></g><defs><clipPath id="a"><path fill="#fff" d="M0 0h302v328H0z"/></clipPath></defs></svg>
